X: 10
T: MY ROSE IN JUNE
S: "Community Dances Manual 5", EFDSS, Michael Bell ed., 1957 p.5
C: See "DORSET SONG BOOK"
R: waltz
Z: 2010 John Chambers <jc:trillian.mit.edu>
M: 3/4
L: 1/4
K: A
E/E/ |\
"A"EAA | "A"AGA | "E7"BcB | "A"A3 | "A"c>cc | "A"cBA | "E"G2B | "E"B3 |
"E7"BGE | "E7"B2B | "A"c2d | "A"e3 | "A7"eAA | "D"d2c | "E7"BAG | "A"A2 |]


%%sep 5 1 500

%%sep 1 1 500

